public/assets/gift_icon.svg

<?xml version="1.0" encoding="UTF-8"?>
<!DOCTYPE svg  PUBLIC '-//W3C//DTD SVG 1.1//EN'  'http://www.w3.org/Graphics/SVG/1.1/DTD/svg11.dtd'>
<svg enable-background="new 0 0 100 100" version="1.1" viewBox="0 0 100 100" xml:space="preserve" xmlns="http://www.w3.org/2000/svg">
<path d="m72.993 35.974s15.672-8.525 4.513-16.242c-10.171-7.03-16.883 16.098-16.883 16.098h-1.165s-6.282-24.617-17.078-16.098c-9.41 7.424 5.065 16.097 5.065 16.097h-27.04v17.523h6.597v28.709h63.077v-28.708h6.93v-17.379h-24.016zm1.782-10.641c4.809 3.525-8.119 7.818-8.119 7.818s3.31-11.344 8.119-7.818zm-29.72 0.368c3.556-5.5 8.358 7.447 8.358 7.447s-10.944-3.446-8.358-7.447zm10.549 51.139h-23.071v-22.001h23.071v22.001zm29.186 0h-22.124v-22.001h22.124v22.001zm6.91-28.38h-65.487v-7.06h65.487v7.06z" fill="#335379"/>
</svg>

<?xml version="1.0" encoding="utf-8"?>
<!-- Generator: Adobe Illustrator 16.0.0, SVG Export Plug-In . SVG Version: 6.00 Build 0)  -->
<!DOCTYPE svg PUBLIC "-//W3C//DTD SVG 1.1//EN" "http://www.w3.org/Graphics/SVG/1.1/DTD/svg11.dtd">
<svg version="1.1" id="Layer_1" xmlns="http://www.w3.org/2000/svg" xmlns:xlink="http://www.w3.org/1999/xlink" x="0px" y="0px"
	 width="100px" height="100px" viewBox="0 0 100 100" enable-background="new 0 0 100 100" xml:space="preserve">
<path fill="#335379" d="M72.993,35.974c0,0,15.672-8.525,4.513-16.242C67.335,12.702,60.623,35.83,60.623,35.83h-1.165
	c0,0-6.282-24.617-17.078-16.098c-9.41,7.424,5.065,16.097,5.065,16.097H20.405v17.523h6.597v28.709h63.077V53.353h6.93V35.974
	H72.993z M74.775,25.333c4.809,3.525-8.119,7.818-8.119,7.818S69.966,21.807,74.775,25.333z M45.055,25.701
	c3.556-5.5,8.358,7.447,8.358,7.447S42.469,29.702,45.055,25.701z M55.604,76.84H32.533V54.839h23.071V76.84z M84.79,76.84H62.666
	V54.839H84.79V76.84z M91.7,48.46H26.213v-7.06H91.7V48.46z"/>
</svg>
